X:1
T:Saskatchewan, 77.77.77
T:Saskatchewan, 77.77.77
T:James Holmes Rosecrans, 1893
T:Public Domain Courtesy of the Cyber Hymnal™
C:James Holmes Rosecrans, 1893
Z:Public Domain
Z:Courtesy of the Cyber Hymnal™
%%score ( 1 2 ) ( 3 4 )
L:1/8
Q:1/4=107
M:4/4
K:F
V:1 treble 
V:2 treble 
V:3 bass 
V:4 bass 
V:1
 [Fc]3 [Fd] [EB]2 [EB]2 | [GB]3 [Ec] [FA]4 | [Fd]3 [Fc] [EB]2 [FA]2 | [FA]3 [EG] [EG]4 | %4
 [Fc]3 [Fd] [EB]2 [EB]2 | [GB]3 [Ec] [FA]4 | [EG]3 [EG] [FA]2 [F=B]2 | [Fd]3 [Ec] [Ec]4 | %8
 .[Ec]2 .[Ec]2 .[Fc]2 .[Ec]2 | [Fc]3 [EB] [FA]4 | .G2 .[FA]2 .[FB]2 .[GB]2 | [FA]3 [CG] [CF]4 |] %12
V:2
 x8 | x8 | x8 | x8 | x8 | x8 | x8 | x8 | x8 | x8 | G2 x6 | x8 |] %12
V:3
 [F,A,]3 [F,B,] [G,C]2 [G,C]2 | [C,C]3 [C,C] [F,C]4 | B,3 [A,C] [G,C]2 [F,C]2 | %3
 [C,C]3 [C,C] [C,C]4 | [F,A,]3 [F,B,] [G,C]2 [G,C]2 | [C,C]3 [C,C] [F,C]4 | %6
 [C,C]3 [C,C] [F,C]2 G,2 | [G,=B,]3 [C,C] [C,C]4 | .[C,G,]2 .[C,G,]2 .[F,A,]2 .[G,B,]2 | %9
 [A,C]3 [G,C] [F,C]4 | .[D,B,]2 .[C,C]2 .[B,,D]2 .[G,,D]2 | [C,C]3 [C,B,] [F,A,]4 |] %12
V:4
 x8 | x8 | B,3 x5 | x8 | x8 | x8 | x6 G,2 | x8 | x8 | x8 | x8 | x8 |] %12

